assets/images/edit.svg

<?xml version="1.0" encoding="UTF-8"?>
<svg width="152px" height="144px" viewBox="0 0 152 144" version="1.1" xmlns="http://www.w3.org/2000/svg" xmlns:xlink="http://www.w3.org/1999/xlink">
    <!-- Generator: Sketch 52.6 (67491) - http://www.bohemiancoding.com/sketch -->
    <title>edit</title>
    <desc>Created with Sketch.</desc>
    <g id="Page-1" stroke="none" stroke-width="1" fill="none" fill-rule="evenodd">
        <g id="Pixel-2" transform="translate(-36.000000, -4108.000000)">
            <g id="edit" transform="translate(36.000000, 4108.000000)">
                <rect id="Rectangle-Copy-9" fill="#252525" x="0" y="0" width="152" height="144"></rect>
                <path d="M68.6886371,72 L77,80.4625743 L66,83 L68.6886371,72 Z M99,59.5380109 L80.6096309,78 L72,69.4582229 L90.3903691,51 L99,59.5380109 Z M87.2,76.434375 L87.2,89.125 L56.8,89.125 L56.8,65.875 L69.6117,65.875 L73.3699,62 L53,62 L53,93 L91,93 L91,72.5148125 L87.2,76.434375 Z" fill="#FFFFFF" fill-rule="nonzero"></path>
            </g>
        </g>
    </g>
</svg>

<svg xmlns="http://www.w3.org/2000/svg" width="152" height="144"><title>edit</title><desc>Created with Sketch.</desc><g fill="none"><g><g><path fill="#252525" d="M0 0h152v144H0z"/><path fill="#fff" fill-rule="nonzero" d="M68.7 72l8.3 8.46L66 83l2.7-11zM99 59.54L80.6 78 72 69.46 90.4 51l8.6 8.54zm-11.8 16.9v12.7l-30.4-.02V65.88h12.8L73.38 62H53v31h38V72.5l-3.8 3.93z"/></g></g></g></svg>
